X:532
T: SCHLAF KINDKEN SCHLAFE
N: E1808
O: Europa, Mitteleuropa, Deutschland, Brandenburg
R: Kinder -, Wiegen -, Schlaf - Lied
M: 2/4
L: 1/8
K: F
 | A2GG | F2C
C | AAGG | F2C
C | FFGG | A2G
C | FFGG | AAG
c | AFGE | F2Fz

